static/img/in-field/nav-state-blue-default.svg

<svg width="279" height="65" viewBox="0 0 279 65" fill="none" xmlns="http://www.w3.org/2000/svg">
<rect width="278" height="64" transform="translate(0.75 0.375)" fill="#0E416C"/>
<path fill-rule="evenodd" clip-rule="evenodd" d="M131.75 27.0417V24.375H155.75V27.0417H131.75ZM131.75 33.7083H155.75V31.0417H131.75V33.7083ZM131.75 40.375H155.75V37.7083H131.75V40.375Z" fill="white"/>
</svg>

<svg width="279" height="65" fill="none" xmlns="http://www.w3.org/2000/svg"><path fill="#0E416C" d="M.75.375h278v64H.75z"/><path fill-rule="evenodd" clip-rule="evenodd" d="M131.75 27.042v-2.667h24v2.667h-24zm0 6.666h24v-2.666h-24v2.666zm0 6.667h24v-2.667h-24v2.667z" fill="#fff"/></svg>
